icons-dark/mimetypes/16/application-x-skg.svg

<?xml version="1.0" encoding="UTF-8" standalone="no"?>

<!-- Created with Inkscape (http://www.inkscape.org/) -->
<svg width="16" version="1.1" xmlns="http://www.w3.org/2000/svg" height="16" viewBox="0 0 16 16" xmlns:inkscape="http://www.inkscape.org/namespaces/inkscape">
 <defs id="defs4"/>
 <metadata id="metadata7"/>
 <path inkscape:label="Capa 1" inkscape:groupmode="layer" inkscape:connector-curvature="0" style="fill:#fdd285;color:#4d4d4d" id="path2993" d="m 7.5,2 0,1.125 C 6.657105,3.2031674 5.9928939,3.4158583 5.5,3.8125 4.95761,4.2447 4.6875,4.88402 4.6875,5.71875 4.6875,6.88402 5.38454,7.63984 6.8125,8 L 7.5,8.1875 7.5,11.875 C 6.6128298,11.795706 5.7812569,11.601634 5,11.21875 L 4.65625,12.125 c 0.31778,0.19491 0.7516,0.3787 1.28125,0.53125 C 6.4023232,12.785363 6.9259807,12.84223 7.5,12.875 L 7.5,14 7.75,14 8.34375,14 8.5,14 8.5,12.875 C 9.349811,12.80657 10.03337,12.547817 10.53125,12.09375 11.06515,11.61071 11.34374,10.91102 11.34375,10 11.34374,9.26271 11.14405,8.7108 10.75,8.3125 10.35592,7.90995 9.7627,7.61971 9,7.4375 l -0.5,-0.125 0,-3.25 c 0.3855531,0.028944 0.78709,0.083097 1.15625,0.1875 0.42373,0.11442 0.74151,0.26219 1,0.40625 L 10.96875,3.75 C 10.328483,3.3513511 9.507613,3.1129214 8.5,3.0625 L 8.5,2 8.34375,2 7.75,2 7.5,2 Z M 7.28125,4.09375 c 0.065458,-0.010982 0.1489476,0.00794 0.21875,0 L 7.5,7.0625 7.21875,7 C 6.74841,6.8856 6.39353,6.71611 6.15625,6.5 5.9232,6.27967 5.81249,5.98518 5.8125,5.625 5.8124912,4.76855 6.2950199,4.2592177 7.28125,4.09375 Z M 8.5,8.40625 8.6875,8.46875 c 0.57626,0.14407 0.97139,0.33952 1.1875,0.59375 0.22034,0.25001 0.31249,0.59323 0.3125,1 -10e-6,1.13306 -0.5629367,1.734764 -1.6875,1.84375 l 0,-3.5 z"/>
</svg>

<svg width="16" xmlns="http://www.w3.org/2000/svg" height="16" viewBox="0 0 16 16">
 <path fill="#f59e16" color="#4d4d4d" d="m7.5 2v1.125c-.843.078-1.507.291-2 .688-.542.432-.813 1.072-.813 1.906 0 1.165.697 1.921 2.125 2.281l.688.188v3.688c-.887-.079-1.719-.273-2.5-.656l-.344.906c.318.195.752.379 1.281.531.465.129.988.186 1.563.219v1.125h1v-1.125c.85-.068 1.533-.327 2.031-.781.534-.483.812-1.183.813-2.094 0-.737-.2-1.289-.594-1.688-.394-.403-.987-.693-1.75-.875l-.5-.125v-3.25c.386.029.787.083 1.156.188.424.114.742.262 1 .406l.313-.906c-.64-.399-1.461-.637-2.469-.688v-1.063h-.75zm-.219 2.094c.065-.011.149.008.219 0v2.969l-.281-.063c-.47-.114-.825-.284-1.063-.5-.233-.22-.344-.515-.344-.875 0-.856.483-1.366 1.469-1.531m1.219 4.313l.188.063c.576.144.971.34 1.188.594.22.25.312.593.313 1 0 1.133-.563 1.735-1.688 1.844z"/>
</svg>
